X:1
T:Title
%%score { ( 1 3 ) | 2 }
L:1/8
M:4/4
K:C
V:1 treble nm="Grand Piano"
V:3 treble 
V:2 bass 
V:1
 z4 z2[Q:1/4=100] [EG]2 | [EG]3 [FA] [EG]>[CE] [EG]>[Ec] | [Ge]6 [Gc]2 | c3 d c2 A2 | %4
[M:3/4] [FA]2 [EG]4 |[M:1/4] [EG]2 |[M:4/4] [DGB]3 [DAc] B>A B>c | d6 [Ge]2 | %8
 [Gd]3 [GB] [^FA]2 [Fc]2 |[M:3/4] [Ac]2 B4 |[M:1/4] G2 |[M:4/4] [Ge]>[Ge] [Ge]4 [Fd]2 | %12
 [Fd]2 [Ec]4 [Gc]2 | d>d d4 [^Ge]2 |[M:3/4] c6 |[M:1/4] c2 |[M:4/4] c>d c4 A2 | %17
 [FA]2 [EG]4 [Gc][Ad] | z4 z2 d2 |[M:3/4] [Ec]6 |] %20
V:2
 z4 z2 [C,C]2 | [C,C]3 [C,C] [C,C]>[C,G,] [C,C]>[C,G,] | [C,C]6 [E,C]2 | %3
 [F,A,F]3 [F,A,F] [F,A,F]2 [F,CF]2 |[M:3/4] [C,C]2 [C,C]4 |[M:1/4] C,2 | %6
[M:4/4] G,3 G,[K:treble] [G,DG]>[CD^F] [B,DG]>[A,DF] | [G,B,G]6[K:bass] [C,C]2 | %8
 [D,B,]3 [D,D] [D,D]2 [D,D]2 |[M:3/4][K:treble] [G,D]2 [G,DG]4 |[M:1/4][K:bass] [G,B,]2 | %11
[M:4/4] [C,C]>[C,C] [C,C]4 [C,G,]2 | [C,G,]2 [C,G,]4 [E,C]2 | [G,B,G]>[G,B,G] [G,B,G]4 [E,B,]2 | %14
[M:3/4] [A,CA]6 |[M:1/4][K:bass] [G,_B,E]2 |[M:4/4] [F,A,F]>[F,A,F] [F,A,F]4 [F,CF]2 | %17
 [C,C]2 [C,C]4 [E,C][F,C] | [G,CG]3 [G,CG] [G,B,F]2 .[G,B,F]2 |[M:3/4][K:bass] [C,G,]6 |] %20
V:3
 x8 | x8 | x8 | x8 |[M:3/4] x6 |[M:1/4] x2 |[M:4/4] x8 | x8 | x8 |[M:3/4] x6 |[M:1/4] x2 | %11
[M:4/4] x8 | x8 | x8 |[M:3/4] x6 |[M:1/4] x2 |[M:4/4] x8 | x8 | e3 e d2 z G, |[M:3/4] x6 |] %20

